; generated by PrusaSlicer 2.7.4+win64 on 2024-12-10 at 20:03:31 UTC


;
;

;
;

;
;

;
;

;
;
; 

; external perimeters extrusion width = 0.45mm
; perimeters extrusion width = 0.45mm
; infill extrusion width = 0.45mm
; solid infill extrusion width = 0.45mm
; top infill extrusion width = 0.42mm
; first layer extrusion width = 0.50mm

M73 P0 R100
M201 X4000 Y4000 Z200 E2500 ; sets maximum accelerations, mm/sec^2
M203 X300 Y300 Z40 E100 ; sets maximum feedrates, mm / sec
M204 P4000 R1200 T4000 ; sets acceleration (P, T) and retract acceleration (R), mm/sec^2
M205 X8.00 Y8.00 Z2.00 E10.00 ; sets the jerk limits, mm/sec
M205 S0 T0 ; sets the minimum extruding and travel feed rate, mm/sec

M486 S0
M486 ASafe Bookshelf Hole Cap.stl
M486 S-1

;TYPE:Custom
M17 ; enable steppers
M862.1 P0.4 ; nozzle diameter check
M862.3 P "MK4" ; printer model check
M862.5 P2 ; g-code level check
M862.6 P"Input shaper" ; FW feature check
M115 U5.1.2+13478

M555 X25 Y48.5 W200 H109

G90 ; use absolute coordinates
M83 ; extruder relative mode

M140 S85 ; set bed temp
M104 T0 S175 ; set extruder temp for bed leveling
M109 T0 R175 ; wait for temp

M84 E ; turn off E motor

G28 ; home all without mesh bed level

G1 X42 Y-4 Z5 F4800

M302 S160 ; lower cold extrusion limit to 160C


G1 E-2 F2400 ; retraction


M84 E ; turn off E motor

G29 P9 X10 Y-4 W32 H4



G0 Z40 F10000

M190 S85 ; wait for bed temp

M107

;
; MBL
;
M84 E ; turn off E motor
G29 P1 ; invalidate mbl & probe print area
G29 P1 X0 Y0 W50 H20 C ; probe near purge place
G29 P3.2 ; interpolate mbl probes
G29 P3.13 ; extrapolate mbl outside probe area
G29 A ; activate mbl

; prepare for purge
M104 S240
G0 X0 Y-4 Z15 F4800 ; move away and ready for the purge
M109 S240

G92 E0
M569 S0 E ; set spreadcycle mode for extruder

;
; Extrude purge line
;
G92 E0 ; reset extruder position
G1 E2 F2400 ; deretraction after the initial one before nozzle cleaning
G0 E7 X15 Z0.2 F500 ; purge
G0 X25 E4 F500 ; purge
G0 X35 E4 F650 ; purge
G0 X45 E4 F800 ; purge
G0 X48 Z0.05 F8000 ; wipe, move close to the bed
G0 X51 Z0.2 F8000 ; wipe, move quickly away from the bed

G92 E0
M221 S100 ; set flow to 100%
G21 ; set units to millimeters
G90 ; use absolute coordinates
M83 ; use relative distances for extrusion
M900 K0.07 ; Filament gcode


M572 S0.055 ; Filament gcode


M142 S36 ; set heatbreak target temp
M107
;LAYER_CHANGE
;Z:0.2
;HEIGHT:0.2
G1 E-.8 F2100
G1 Z1.7 F720
M486 S0
G1 X224.093 Y53.407 F18000
G1 Z.2 F720
G1 E.8 F2100
M204 P500
;TYPE:Perimeter
;WIDTH:0.499999
G1 F2400
G1 X224.093 Y105 E1.96086
G1 X224.093 Y156.593 E1.96086
G1 X25.907 Y156.593 E7.53231
G1 X25.907 Y53.407 E3.92172
M73 P0 R99
G1 X224.033 Y53.407 E7.53003
M204 P4000
M204 T4000
G1 X224.55 Y52.95 F18000
M204 P500
;TYPE:External perimeter
G1 F2400
G1 X224.55 Y105 E1.97823
G1 X224.55 Y157.05 E1.97823
G1 X25.45 Y157.05 E7.56705
G1 X25.45 Y52.95 E3.95645
G1 X224.49 Y52.95 E7.56477
M204 P4000
G1 E-.16 F2100
;WIPE_START
G1 F14400
G1 X224.55 Y52.95 E-.00831
G1 X224.55 Y57.51 E-.63169
;WIPE_END
G1 X223.91 Y54.514 Z.253 F18000
G1 Z.2 F720
G1 E.8 F2100
M204 P500
;TYPE:Solid infill
;WIDTH:0.50023
G1 F2400
G1 X223.191 Y53.796 E.03864
G1 X222.545 Y53.796 E.02456
G1 X223.704 Y54.955 E.06233
G1 X223.704 Y55.602 E.0246
G1 X221.898 Y53.796 E.09712
G1 X221.251 Y53.796 E.0246
G1 X223.704 Y56.249 E.13191
G1 X223.704 Y56.896 E.0246
G1 X220.604 Y53.796 E.16671
G1 X219.958 Y53.796 E.02456
G1 X223.704 Y57.542 E.20145
G1 X223.704 Y58.189 E.0246
G1 X219.311 Y53.796 E.23624
G1 X218.664 Y53.796 E.0246
G1 X223.704 Y58.836 E.27103
G1 X223.704 Y59.483 E.0246
G1 X218.017 Y53.796 E.30582
G1 X217.371 Y53.796 E.02456
G1 X223.704 Y60.129 E.34056
G1 X223.704 Y60.776 E.0246
G1 X216.724 Y53.796 E.37536
G1 X216.077 Y53.796 E.0246
G1 X223.704 Y61.423 E.41015
G1 X223.704 Y62.069 E.02456
G1 X215.431 Y53.796 E.44489
G1 X214.784 Y53.796 E.0246
G1 X223.704 Y62.716 E.47968
G1 X223.704 Y63.363 E.0246
G1 X214.137 Y53.796 E.51448
G1 X213.49 Y53.796 E.0246
G1 X223.704 Y64.01 E.54927
G1 X223.704 Y64.656 E.02456
G1 X212.844 Y53.796 E.58401
G1 X212.197 Y53.796 E.0246
G1 X223.704 Y65.303 E.6188
G1 X223.704 Y65.95 E.0246
G1 X211.55 Y53.796 E.6536
G1 X210.903 Y53.796 E.0246
G1 X223.704 Y66.597 E.68839
G1 X223.704 Y67.243 E.02456
G1 X210.257 Y53.796 E.72313
G1 X209.61 Y53.796 E.0246
G1 X223.704 Y67.89 E.75792
G1 X223.704 Y68.537 E.0246
G1 X208.963 Y53.796 E.79271
G1 X208.316 Y53.796 E.0246
G1 X223.704 Y69.184 E.82751
G1 X223.704 Y69.83 E.02456
G1 X207.67 Y53.796 E.86225
G1 X207.023 Y53.796 E.0246
G1 X223.704 Y70.477 E.89704
G1 X223.704 Y71.124 E.0246
G1 X206.376 Y53.796 E.93183
G1 X205.729 Y53.796 E.0246
G1 X223.704 Y71.771 E.96663
G1 X223.704 Y72.417 E.02456
G1 X205.083 Y53.796 E1.00137
G1 X204.436 Y53.796 E.0246
G1 X223.704 Y73.064 E1.03616
G1 X223.704 Y73.711 E.0246
G1 X203.789 Y53.796 E1.07095
G1 X203.143 Y53.796 E.02456
G1 X223.704 Y74.357 E1.10569
G1 X223.704 Y75.004 E.0246
G1 X202.496 Y53.796 E1.14048
G1 X201.849 Y53.796 E.0246
G1 X223.704 Y75.651 E1.17528
G1 X223.704 Y76.298 E.0246
G1 X201.202 Y53.796 E1.21007
G1 X200.556 Y53.796 E.02456
G1 X223.704 Y76.944 E1.24481
G1 X223.704 Y77.591 E.0246
G1 X199.909 Y53.796 E1.2796
G1 X199.262 Y53.796 E.0246
G1 X223.704 Y78.238 E1.3144
G1 X223.704 Y78.885 E.0246
M73 P1 R99
G1 X198.615 Y53.796 E1.34919
G1 X197.969 Y53.796 E.02456
G1 X223.704 Y79.531 E1.38393
G1 X223.704 Y80.178 E.0246
G1 X197.322 Y53.796 E1.41872
G1 X196.675 Y53.796 E.0246
G1 X223.704 Y80.825 E1.45352
G1 X223.704 Y81.472 E.0246
G1 X196.028 Y53.796 E1.48831
G1 X195.382 Y53.796 E.02456
G1 X223.704 Y82.118 E1.52305
G1 X223.704 Y82.765 E.0246
G1 X194.735 Y53.796 E1.55784
G1 X194.088 Y53.796 E.0246
G1 X223.704 Y83.412 E1.59263
G1 X223.704 Y84.058 E.02456
G1 X193.442 Y53.796 E1.62737
G1 X192.795 Y53.796 E.0246
G1 X223.704 Y84.705 E1.66217
G1 X223.704 Y85.352 E.0246
G1 X192.148 Y53.796 E1.69696
G1 X191.501 Y53.796 E.0246
G1 X223.704 Y85.999 E1.73175
G1 X223.704 Y86.645 E.02456
M73 P1 R98
G1 X190.855 Y53.796 E1.76649
G1 X190.208 Y53.796 E.0246
G1 X223.704 Y87.292 E1.80129
G1 X223.704 Y87.939 E.0246
G1 X189.561 Y53.796 E1.83608
G1 X188.914 Y53.796 E.0246
G1 X223.704 Y88.586 E1.87087
G1 X223.704 Y89.232 E.02456
G1 X188.268 Y53.796 E1.90561
G1 X187.621 Y53.796 E.0246
G1 X223.704 Y89.879 E1.9404
G1 X223.704 Y90.526 E.0246
G1 X186.974 Y53.796 E1.9752
G1 X186.327 Y53.796 E.0246
G1 X223.704 Y91.173 E2.00999
G1 X223.704 Y91.819 E.02456
G1 X185.681 Y53.796 E2.04473
G1 X185.034 Y53.796 E.0246
G1 X223.704 Y92.466 E2.07952
G1 X223.704 Y93.113 E.0246
G1 X184.387 Y53.796 E2.11432
G1 X183.741 Y53.796 E.02456
G1 X223.704 Y93.759 E2.14906
G1 X223.704 Y94.406 E.0246
G1 X183.094 Y53.796 E2.18385
G1 X182.447 Y53.796 E.0246
G1 X223.704 Y95.053 E2.21864
G1 X223.704 Y95.7 E.0246
G1 X181.8 Y53.796 E2.25344
G1 X181.154 Y53.796 E.02456
G1 X223.704 Y96.346 E2.28818
G1 X223.704 Y96.993 E.0246
G1 X180.507 Y53.796 E2.32297
G1 X179.86 Y53.796 E.0246
G1 X223.704 Y97.64 E2.35776
G1 X223.704 Y98.287 E.0246
G1 X179.213 Y53.796 E2.39255
G1 X178.567 Y53.796 E.02456
G1 X223.704 Y98.933 E2.42729
G1 X223.704 Y99.58 E.0246
G1 X177.92 Y53.796 E2.46209
G1 X177.273 Y53.796 E.0246
G1 X223.704 Y100.227 E2.49688
G1 X223.704 Y100.874 E.0246
G1 X176.626 Y53.796 E2.53167
G1 X175.98 Y53.796 E.02456
G1 X223.704 Y101.52 E2.56641
G1 X223.704 Y102.167 E.0246
G1 X175.333 Y53.796 E2.60121
G1 X174.686 Y53.796 E.0246
G1 X223.704 Y102.814 E2.636
G1 X223.704 Y103.46 E.02456
G1 X174.04 Y53.796 E2.67074
G1 X173.393 Y53.796 E.0246
G1 X223.704 Y104.107 E2.70553
G1 X223.704 Y104.754 E.0246
G1 X172.746 Y53.796 E2.74032
G1 X172.099 Y53.796 E.0246
G1 X223.704 Y105.401 E2.77512
G1 X223.704 Y106.047 E.02456
M73 P2 R98
G1 X171.453 Y53.796 E2.80986
G1 X170.806 Y53.796 E.0246
G1 X223.704 Y106.694 E2.84465
G1 X223.704 Y107.341 E.0246
G1 X170.159 Y53.796 E2.87944
G1 X169.512 Y53.796 E.0246
G1 X223.704 Y107.988 E2.91424
G1 X223.704 Y108.634 E.02456
G1 X168.866 Y53.796 E2.94898
G1 X168.219 Y53.796 E.0246
G1 X223.704 Y109.281 E2.98377
G1 X223.704 Y109.928 E.0246
G1 X167.572 Y53.796 E3.01856
G1 X166.925 Y53.796 E.0246
M73 P2 R97
G1 X223.704 Y110.575 E3.05336
G1 X223.704 Y111.221 E.02456
G1 X166.279 Y53.796 E3.0881
G1 X165.632 Y53.796 E.0246
G1 X223.704 Y111.868 E3.12289
G1 X223.704 Y112.515 E.0246
G1 X164.985 Y53.796 E3.15768
G1 X164.339 Y53.796 E.02456
G1 X223.704 Y113.161 E3.19242
G1 X223.704 Y113.808 E.0246
G1 X163.692 Y53.796 E3.22721
G1 X163.045 Y53.796 E.0246
G1 X223.704 Y114.455 E3.26201
G1 X223.704 Y115.102 E.0246
G1 X162.398 Y53.796 E3.2968
G1 X161.752 Y53.796 E.02456
G1 X223.704 Y115.748 E3.33154
G1 X223.704 Y116.395 E.0246
G1 X161.105 Y53.796 E3.36633
G1 X160.458 Y53.796 E.0246
G1 X223.704 Y117.042 E3.40113
G1 X223.704 Y117.689 E.0246
G1 X159.811 Y53.796 E3.43592
G1 X159.165 Y53.796 E.02456
G1 X223.704 Y118.335 E3.47066
G1 X223.704 Y118.982 E.0246
G1 X158.518 Y53.796 E3.50545
G1 X157.871 Y53.796 E.0246
G1 X223.704 Y119.629 E3.54025
G1 X223.704 Y120.276 E.0246
G1 X157.224 Y53.796 E3.57504
G1 X156.578 Y53.796 E.02456
G1 X223.704 Y120.922 E3.60978
G1 X223.704 Y121.569 E.0246
G1 X155.931 Y53.796 E3.64457
G1 X155.284 Y53.796 E.0246
G1 X223.704 Y122.216 E3.67936
G1 X223.704 Y122.862 E.02456
G1 X154.638 Y53.796 E3.7141
G1 X153.991 Y53.796 E.0246
M73 P3 R97
G1 X223.704 Y123.509 E3.7489
G1 X223.704 Y124.156 E.0246
G1 X153.344 Y53.796 E3.78369
G1 X152.697 Y53.796 E.0246
G1 X223.704 Y124.803 E3.81848
G1 X223.704 Y125.449 E.02456
G1 X152.051 Y53.796 E3.85322
G1 X151.404 Y53.796 E.0246
G1 X223.704 Y126.096 E3.88802
G1 X223.704 Y126.743 E.0246
M73 P3 R96
G1 X150.757 Y53.796 E3.92281
G1 X150.11 Y53.796 E.0246
G1 X223.704 Y127.39 E3.9576
G1 X223.704 Y128.036 E.02456
G1 X149.464 Y53.796 E3.99234
G1 X148.817 Y53.796 E.0246
G1 X223.704 Y128.683 E4.02713
G1 X223.704 Y129.33 E.0246
G1 X148.17 Y53.796 E4.06193
G1 X147.523 Y53.796 E.0246
G1 X223.704 Y129.977 E4.09672
G1 X223.704 Y130.623 E.02456
G1 X146.877 Y53.796 E4.13146
G1 X146.23 Y53.796 E.0246
G1 X223.704 Y131.27 E4.16625
G1 X223.704 Y131.917 E.0246
G1 X145.583 Y53.796 E4.20105
G1 X144.937 Y53.796 E.02456
G1 X223.704 Y132.564 E4.23581
G1 X223.704 Y133.21 E.02456
G1 X144.29 Y53.796 E4.27058
G1 X143.643 Y53.796 E.0246
G1 X223.704 Y133.857 E4.30537
G1 X223.704 Y134.504 E.0246
G1 X142.996 Y53.796 E4.34017
G1 X142.35 Y53.796 E.02456
G1 X223.704 Y135.15 E4.3749
G1 X223.704 Y135.797 E.0246
G1 X141.703 Y53.796 E4.4097
G1 X141.056 Y53.796 E.0246
G1 X223.704 Y136.444 E4.44449
G1 X223.704 Y137.091 E.0246
G1 X140.409 Y53.796 E4.47928
G1 X139.763 Y53.796 E.02456
M73 P4 R96
G1 X223.704 Y137.737 E4.51402
G1 X223.704 Y138.384 E.0246
G1 X139.116 Y53.796 E4.54882
G1 X138.469 Y53.796 E.0246
G1 X223.704 Y139.031 E4.58361
G1 X223.704 Y139.678 E.0246
G1 X137.822 Y53.796 E4.6184
G1 X137.176 Y53.796 E.02456
M73 P4 R95
G1 X223.704 Y140.324 E4.65314
G1 X223.704 Y140.971 E.0246
G1 X136.529 Y53.796 E4.68794
G1 X135.882 Y53.796 E.0246
G1 X223.704 Y141.618 E4.72273
G1 X223.704 Y142.265 E.0246
G1 X135.235 Y53.796 E4.75752
G1 X134.589 Y53.796 E.02456
G1 X223.704 Y142.911 E4.79226
G1 X223.704 Y143.558 E.0246
G1 X133.942 Y53.796 E4.82705
G1 X133.295 Y53.796 E.0246
G1 X223.704 Y144.205 E4.86185
G1 X223.704 Y144.851 E.02456
G1 X132.649 Y53.796 E4.89659
G1 X132.002 Y53.796 E.0246
G1 X223.704 Y145.498 E4.93138
G1 X223.704 Y146.145 E.0246
G1 X131.355 Y53.796 E4.96617
G1 X130.708 Y53.796 E.0246
G1 X223.704 Y146.792 E5.00097
G1 X223.704 Y147.438 E.02456
G1 X130.062 Y53.796 E5.03571
G1 X129.415 Y53.796 E.0246
G1 X223.704 Y148.085 E5.0705
G1 X223.704 Y148.732 E.0246
G1 X128.768 Y53.796 E5.10529
G1 X128.121 Y53.796 E.0246
M73 P5 R95
G1 X223.704 Y149.379 E5.14009
G1 X223.704 Y150.025 E.02456
G1 X127.475 Y53.796 E5.17482
G1 X126.828 Y53.796 E.0246
G1 X223.704 Y150.672 E5.20962
G1 X223.704 Y151.319 E.0246
G1 X126.181 Y53.796 E5.24441
G1 X125.534 Y53.796 E.0246
M73 P5 R94
G1 X223.704 Y151.966 E5.2792
G1 X223.704 Y152.612 E.02456
G1 X124.888 Y53.796 E5.31394
G1 X124.241 Y53.796 E.0246
G1 X223.704 Y153.259 E5.34874
G1 X223.704 Y153.906 E.0246
G1 X123.594 Y53.796 E5.38353
G1 X122.948 Y53.796 E.02456
G1 X223.704 Y154.552 E5.41827
G1 X223.704 Y155.199 E.0246
G1 X122.301 Y53.796 E5.45306
G1 X121.654 Y53.796 E.0246
G1 X223.704 Y155.846 E5.48786
G1 X223.704 Y156.204 E.01361
G1 X223.416 Y156.204 E.01095
G1 X121.007 Y53.796 E5.50713
G1 X120.361 Y53.796 E.02456
G1 X222.769 Y156.204 E5.50711
G1 X222.123 Y156.204 E.02456
G1 X119.714 Y53.796 E5.50713
G1 X119.067 Y53.796 E.0246
G1 X221.476 Y156.204 E5.50713
G1 X220.829 Y156.204 E.0246
G1 X118.42 Y53.796 E5.50713
G1 X117.774 Y53.796 E.02456
G1 X220.182 Y156.204 E5.50711
G1 X219.536 Y156.204 E.02456
M73 P6 R94
G1 X117.127 Y53.796 E5.50713
G1 X116.48 Y53.796 E.0246
G1 X218.889 Y156.204 E5.50713
G1 X218.242 Y156.204 E.0246
G1 X115.833 Y53.796 E5.50713
G1 X115.187 Y53.796 E.02456
M73 P6 R93
G1 X217.596 Y156.204 E5.50713
G1 X216.949 Y156.204 E.0246
G1 X114.54 Y53.796 E5.50713
G1 X113.893 Y53.796 E.0246
G1 X216.302 Y156.204 E5.50713
G1 X215.655 Y156.204 E.0246
G1 X113.247 Y53.796 E5.50711
G1 X112.6 Y53.796 E.0246
G1 X215.009 Y156.204 E5.50713
G1 X214.362 Y156.204 E.0246
G1 X111.953 Y53.796 E5.50713
G1 X111.306 Y53.796 E.0246
G1 X213.715 Y156.204 E5.50713
G1 X213.068 Y156.204 E.0246
G1 X110.66 Y53.796 E5.50711
G1 X110.013 Y53.796 E.0246
G1 X212.422 Y156.204 E5.50713
G1 X211.775 Y156.204 E.0246
G1 X109.366 Y53.796 E5.50713
G1 X108.719 Y53.796 E.0246
G1 X211.128 Y156.204 E5.50713
G1 X210.481 Y156.204 E.0246
G1 X108.073 Y53.796 E5.50711
G1 X107.426 Y53.796 E.0246
G1 X209.835 Y156.204 E5.50713
G1 X209.188 Y156.204 E.0246
M73 P7 R93
G1 X106.779 Y53.796 E5.50713
G1 X106.132 Y53.796 E.0246
G1 X208.541 Y156.204 E5.50713
G1 X207.895 Y156.204 E.02456
G1 X105.486 Y53.796 E5.50713
G1 X104.839 Y53.796 E.0246
M73 P7 R92
G1 X207.248 Y156.204 E5.50713
G1 X206.601 Y156.204 E.0246
G1 X104.192 Y53.796 E5.50713
G1 X103.546 Y53.796 E.02456
G1 X205.954 Y156.204 E5.50711
G1 X205.308 Y156.204 E.02456
G1 X102.899 Y53.796 E5.50713
G1 X102.252 Y53.796 E.0246
G1 X204.661 Y156.204 E5.50713
G1 X204.014 Y156.204 E.0246
G1 X101.605 Y53.796 E5.50713
G1 X100.959 Y53.796 E.02456
G1 X203.367 Y156.204 E5.50711
G1 X202.721 Y156.204 E.02456
G1 X100.312 Y53.796 E5.50713
G1 X99.665 Y53.796 E.0246
G1 X202.074 Y156.204 E5.50713
G1 X201.427 Y156.204 E.0246
G1 X99.018 Y53.796 E5.50713
G1 X98.372 Y53.796 E.02456
G1 X200.78 Y156.204 E5.50711
G1 X200.134 Y156.204 E.02456
G1 X97.725 Y53.796 E5.50713
G1 X97.078 Y53.796 E.0246
G1 X199.487 Y156.204 E5.50713
G1 X198.84 Y156.204 E.0246
M73 P8 R92
G1 X96.431 Y53.796 E5.50713
G1 X95.785 Y53.796 E.02456
G1 X198.194 Y156.204 E5.50713
G1 X197.547 Y156.204 E.0246
G1 X95.138 Y53.796 E5.50713
G1 X94.491 Y53.796 E.0246
G1 X196.9 Y156.204 E5.50713
G1 X196.253 Y156.204 E.0246
M73 P8 R91
G1 X93.845 Y53.796 E5.50711
G1 X93.198 Y53.796 E.0246
G1 X195.607 Y156.204 E5.50713
G1 X194.96 Y156.204 E.0246
G1 X92.551 Y53.796 E5.50713
G1 X91.904 Y53.796 E.0246
G1 X194.313 Y156.204 E5.50713
G1 X193.666 Y156.204 E.0246
G1 X91.258 Y53.796 E5.50711
G1 X90.611 Y53.796 E.0246
G1 X193.02 Y156.204 E5.50713
G1 X192.373 Y156.204 E.0246
G1 X89.964 Y53.796 E5.50713
G1 X89.317 Y53.796 E.0246
G1 X191.726 Y156.204 E5.50713
G1 X191.079 Y156.204 E.0246
G1 X88.671 Y53.796 E5.50711
G1 X88.024 Y53.796 E.0246
G1 X190.433 Y156.204 E5.50713
G1 X189.786 Y156.204 E.0246
G1 X87.377 Y53.796 E5.50713
G1 X86.73 Y53.796 E.0246
G1 X189.139 Y156.204 E5.50713
G1 X188.493 Y156.204 E.02456
M73 P9 R91
G1 X86.084 Y53.796 E5.50713
G1 X85.437 Y53.796 E.0246
G1 X187.846 Y156.204 E5.50713
G1 X187.199 Y156.204 E.0246
G1 X84.79 Y53.796 E5.50713
G1 X84.144 Y53.796 E.02456
G1 X186.552 Y156.204 E5.50711
G1 X185.906 Y156.204 E.02456
M73 P9 R90
G1 X83.497 Y53.796 E5.50713
G1 X82.85 Y53.796 E.0246
G1 X185.259 Y156.204 E5.50713
G1 X184.612 Y156.204 E.0246
G1 X82.203 Y53.796 E5.50713
G1 X81.557 Y53.796 E.02456
G1 X183.965 Y156.204 E5.50711
G1 X183.319 Y156.204 E.02456
G1 X80.91 Y53.796 E5.50713
G1 X80.263 Y53.796 E.0246
G1 X182.672 Y156.204 E5.50713
G1 X182.025 Y156.204 E.0246
G1 X79.616 Y53.796 E5.50713
G1 X78.97 Y53.796 E.02456
G1 X181.378 Y156.204 E5.50711
G1 X180.732 Y156.204 E.02456
